X: 0
T: That So Thy Blessed Birth
Z: O. Gibbons
Z: Copyright © 2004 by Douglas D. Anderson
Z: Released To The Public Domain
L: 1/4
M: 4/4
Q: 1/4=130
V: P1 name="Staff"
%%MIDI program 1 19
K: F
[V: P1]  D2 A3/ B/ | c c A A | A2 A2 | A B c c | A G E2 | c2 A A | A3/ G/ F E | D2 B2 | c B A ^G | (A/ c/) ^B A2 | B2 c G | G F c3/ B/ | A2 c2 | d (c/ B/) A B | A3/ G/ F2|]
w: That so Thy bless- ed Birth, O Christ, Might thro' the world be spread a- bout, The Star ap- pear ed in the East, Where- by the Gen- tiles found_ Thee out; And of- fered Thee Myrrh, In- cense, Gold, Thy three- fold_ Of- fice to un- fold.

